static/assets/images/tokens/alusd.svg

<svg width="256" height="256" viewBox="0 0 256 256" fill="none" xmlns="http://www.w3.org/2000/svg">
<path d="M256 128C256 161.948 242.514 194.505 218.51 218.51C194.505 242.514 161.948 256 128 256C111.191 256 94.5462 252.689 79.0165 246.257C63.4868 239.824 49.3762 230.396 37.4903 218.51C13.4857 194.505 0 161.948 0 128C0 94.0523 13.4857 61.495 37.4903 37.4903C61.495 13.4857 94.0523 0 128 0C161.948 0 194.505 13.4857 218.51 37.4903C242.514 61.495 256 94.0523 256 128ZM17.8043 171.125C35.2809 215.307 77.2626 245.092 125.021 246.255C125.093 246.256 125.129 246.221 125.129 246.148L125.181 227.164C125.181 227.135 125.175 227.107 125.162 227.082C125.15 227.056 125.132 227.034 125.11 227.016C97.5356 205.172 69.9622 183.327 42.3896 161.48C41.5303 160.801 41.2504 159.978 41.2461 158.824C41.1868 138.425 41.1875 118.025 41.2482 97.6231C41.2526 96.1714 41.615 95.5552 42.6891 94.7046C70.1402 72.9589 97.6036 51.2292 125.079 29.5154C125.133 29.472 125.16 29.4163 125.16 29.3483L125.138 9.86018C125.138 9.77338 125.094 9.7307 125.005 9.73215C104.504 10.3209 85.4852 15.7631 67.9493 26.0587C38.4208 43.3965 17.2531 73.6106 11.4746 107.455C7.82478 128.831 9.81678 150.936 17.8043 171.125ZM131.101 29.6304C158.544 51.4404 186.065 73.1571 213.567 94.8955C214.517 95.6463 214.75 96.4231 214.75 97.6926C214.75 118.057 214.75 138.421 214.75 158.785C214.75 160.204 214.428 160.833 213.376 161.666C185.96 183.386 158.544 205.106 131.129 226.827C131.064 226.878 131.031 226.945 131.031 227.027L131.025 246.083C131.025 246.202 131.083 246.26 131.201 246.257C131.787 246.248 132.508 246.223 133.364 246.181C152.121 245.278 169.635 240.259 185.907 231.122C230.531 206.068 253.96 155.222 244.085 105.062C233.424 50.9218 186.33 11.1752 131.149 9.74951C131.072 9.74806 131.033 9.78567 131.031 9.86234L131.01 29.4438C131.01 29.5205 131.04 29.5827 131.101 29.6304ZM66.1938 158.509C73.1137 171.229 84.3193 182.148 97.1392 188.808C99.4987 190.033 101.669 191.25 103.651 192.458C104.999 193.28 105.964 194.023 106.546 194.689C109.239 197.77 109.013 202.531 108.299 206.363C108.285 206.439 108.308 206.502 108.369 206.549L127.907 222.025C127.934 222.047 127.968 222.059 128.002 222.059C128.037 222.059 128.07 222.047 128.098 222.025L147.132 206.949C147.193 206.901 147.215 206.839 147.2 206.762C146.475 203.104 146.492 198.367 149.129 195.452C150.151 194.322 151.861 193.313 153.245 192.508C154.259 191.919 156.603 190.591 160.276 188.524C172.017 181.914 181.827 172.484 188.58 160.796C192.38 154.224 194.417 146.833 195.335 139.334C197.264 123.578 196.058 107.292 187.784 93.357C181.291 82.422 172.536 73.7792 161.519 67.4285C158.307 65.5775 154.48 63.681 151.24 61.6847C146.668 58.8681 146.293 54.5391 147.015 49.5678C147.027 49.494 147.004 49.4347 146.946 49.3898L128.106 34.4781C128.037 34.4245 127.967 34.4245 127.898 34.4781L108.809 49.5634C108.747 49.6126 108.719 49.677 108.724 49.7566C108.839 51.3102 108.885 52.4357 108.863 53.133C108.753 56.7546 106.748 59.8207 103.532 61.4807C98.9142 63.8647 96.0282 65.3895 94.8738 66.0549C88.0342 70.0013 81.7247 75.084 75.9455 81.303C67.4654 90.4254 61.8518 101.891 59.7621 114.299C57.2428 129.261 58.8659 145.036 66.1938 158.509Z" fill="#EDC29E"/>
<path d="M66.1938 158.509C73.1137 171.229 84.3193 182.148 97.1392 188.808C99.4987 190.033 101.669 191.25 103.651 192.458C104.999 193.28 105.964 194.023 106.546 194.689C109.239 197.77 109.013 202.531 108.299 206.363C108.285 206.439 108.308 206.502 108.369 206.549L127.907 222.025C127.934 222.047 127.968 222.059 128.002 222.059C128.037 222.059 128.07 222.047 128.098 222.025L147.132 206.949C147.193 206.901 147.215 206.839 147.2 206.762C146.475 203.104 146.492 198.367 149.129 195.452C150.151 194.322 151.861 193.313 153.245 192.508C154.259 191.919 156.603 190.591 160.276 188.524C172.017 181.914 181.827 172.484 188.58 160.796C192.38 154.224 194.417 146.833 195.335 139.334C197.264 123.578 196.058 107.292 187.784 93.357C181.291 82.422 172.536 73.7792 161.519 67.4285C158.307 65.5775 154.48 63.681 151.24 61.6847C146.668 58.8681 146.293 54.5391 147.015 49.5678C147.027 49.494 147.004 49.4347 146.946 49.3898L128.106 34.4781C128.037 34.4245 127.967 34.4245 127.898 34.4781L108.809 49.5634C108.747 49.6126 108.719 49.677 108.724 49.7566C108.839 51.3102 108.885 52.4357 108.863 53.133C108.753 56.7546 106.748 59.8207 103.532 61.4807C98.9142 63.8647 96.0282 65.3895 94.8738 66.0549C88.0342 70.0013 81.7247 75.084 75.9455 81.303C67.4654 90.4254 61.8518 101.891 59.7621 114.299C57.2428 129.261 58.8659 145.036 66.1938 158.509Z" fill="black"/>
<path d="M17.8043 171.125C35.2809 215.307 77.2626 245.092 125.021 246.255C125.093 246.256 125.129 246.221 125.129 246.148L125.181 227.164C125.181 227.135 125.175 227.107 125.162 227.082C125.15 227.056 125.132 227.034 125.11 227.016C97.5356 205.172 69.9622 183.327 42.3896 161.48C41.5303 160.801 41.2504 159.978 41.2461 158.824C41.1868 138.425 41.1875 118.025 41.2482 97.6231C41.2526 96.1714 41.615 95.5552 42.6891 94.7046C70.1402 72.9589 97.6036 51.2292 125.079 29.5154C125.133 29.472 125.16 29.4163 125.16 29.3483L125.138 9.86018C125.138 9.77338 125.094 9.7307 125.005 9.73215C104.504 10.3209 85.4852 15.7631 67.9493 26.0587C38.4208 43.3965 17.2531 73.6106 11.4746 107.455C7.82478 128.831 9.81678 150.936 17.8043 171.125Z" fill="black"/>
<path d="M131.101 29.6304C158.544 51.4404 186.065 73.1571 213.567 94.8955C214.517 95.6463 214.75 96.4231 214.75 97.6926V158.785C214.75 160.204 214.428 160.833 213.376 161.666C185.96 183.386 158.544 205.106 131.129 226.827C131.064 226.878 131.031 226.945 131.031 227.027L131.025 246.083C131.025 246.202 131.083 246.26 131.201 246.257C131.787 246.248 132.508 246.223 133.364 246.181C152.121 245.278 169.635 240.259 185.907 231.122C230.531 206.068 253.96 155.222 244.085 105.062C233.424 50.9218 186.33 11.1752 131.149 9.74951C131.072 9.74806 131.033 9.78567 131.031 9.86234L131.01 29.4438C131.01 29.5205 131.04 29.5827 131.101 29.6304Z" fill="black"/>
<path d="M136.317 170.244C136.294 170.248 136.272 170.26 136.257 170.279C136.241 170.298 136.233 170.322 136.233 170.346C136.237 174.138 136.222 177.923 136.187 181.702C136.174 182.995 135.076 184.692 133.824 185.252C133.383 185.448 132.699 185.547 131.773 185.549C129.595 185.555 127.417 185.555 125.24 185.551C124.729 185.551 124.054 185.309 123.215 184.824C121.659 183.926 121.382 182.747 121.386 180.912C121.396 177.405 121.395 173.897 121.382 170.388C121.382 170.308 121.343 170.262 121.264 170.251C112.196 168.914 103.564 164.961 99.04 156.548C97.427 153.55 96.4223 150.575 96.0259 147.623C95.6896 145.117 97.1912 143.55 99.5998 143.559C102.113 143.569 104.624 143.57 107.134 143.563C108.874 143.559 110.278 144.4 110.742 146.13C111.243 147.992 111.613 149.233 111.851 149.853C113.57 154.298 117.176 156.954 121.733 158.008C125.133 158.797 128.49 159.008 131.804 158.642C138.917 157.858 145.047 153.063 144.839 145.412C144.691 139.872 141.768 137.122 136.769 135.419C132.04 133.809 127.763 133.141 122.64 132.362C111.22 130.628 99.5499 126.488 97.7272 113.197C97.2693 109.859 97.2519 106.522 98.0526 103.302C100.696 92.6823 110.471 86.5913 120.789 85.2698C120.862 85.2597 120.898 85.2177 120.898 85.1439C120.902 81.5144 120.903 77.8978 120.9 74.2943C120.898 73.027 122.171 71.2433 123.315 70.7508C123.808 70.5396 124.634 70.4347 125.793 70.4361C127.402 70.439 129.01 70.4397 130.617 70.4383C131.657 70.4383 132.436 70.5273 132.954 70.7052C134.56 71.2585 135.721 72.541 135.729 74.3442C135.747 78.1039 135.762 81.8637 135.775 85.6235C135.775 85.6987 135.812 85.7399 135.885 85.7472C146.019 86.7345 154.31 93.6696 156.91 103.491C157.819 106.926 157.023 109.137 153.182 109.124C151.07 109.117 148.959 109.114 146.85 109.115C144.652 109.117 143.563 108.367 142.803 106.32C141.66 103.237 139.928 100.533 137.107 98.8796C133.147 96.5578 127.605 96.3842 123.072 97.02C115.809 98.042 111.866 102.792 112.891 110.155C113.841 116.994 121.733 118.856 127.301 119.709C139.177 121.529 155.552 122.779 159.306 137.27C159.822 139.268 160.121 141.384 160.204 143.619C160.736 158.14 149.938 168.074 136.317 170.244Z" fill="#EDC29E"/>
</svg>

<svg xmlns="http://www.w3.org/2000/svg" fill="none" viewBox="0 0 256 256"><path fill="#EDC29E" d="M256 128a128 128 0 0 1-37.49 90.51 128.003 128.003 0 0 1-181.02 0A128.001 128.001 0 1 1 256 128M17.804 171.125c17.477 44.182 59.459 73.967 107.217 75.13q.108.002.108-.107l.052-18.984a.2.2 0 0 0-.019-.082.2.2 0 0 0-.052-.066Q83.748 194.25 42.39 161.48c-.86-.679-1.14-1.502-1.144-2.656q-.09-30.598.002-61.2c.005-1.453.367-2.069 1.441-2.92a91765 91765 0 0 1 82.39-65.189.2.2 0 0 0 .081-.167l-.022-19.488q0-.13-.133-.128-30.752.883-57.056 16.327C38.421 43.397 17.253 73.61 11.475 107.455c-3.65 21.376-1.658 43.481 6.33 63.67M131.101 29.63c27.443 21.81 54.964 43.527 82.466 65.266.95.75 1.183 1.527 1.183 2.797v61.092c0 1.419-.322 2.048-1.374 2.881l-82.247 65.161a.24.24 0 0 0-.098.2l-.006 19.056q0 .179.176.174a66 66 0 0 0 2.163-.076q28.135-1.354 52.543-15.059c44.624-25.054 68.053-75.9 58.178-126.06-10.661-54.14-57.755-93.887-112.936-95.312q-.115-.003-.118.112l-.021 19.582q0 .115.091.186M66.194 158.51c6.92 12.72 18.125 23.639 30.945 30.299q3.54 1.838 6.512 3.65 2.022 1.233 2.895 2.231c2.693 3.081 2.467 7.842 1.753 11.674a.18.18 0 0 0 .07.186l19.538 15.476a.15.15 0 0 0 .191 0l19.034-15.076a.18.18 0 0 0 .068-.187c-.725-3.658-.708-8.395 1.929-11.31 1.022-1.13 2.732-2.139 4.116-2.944a803 803 0 0 1 7.031-3.984c11.741-6.61 21.551-16.04 28.304-27.728 3.8-6.572 5.837-13.963 6.755-21.462 1.929-15.756.723-32.042-7.551-45.977q-9.74-16.403-26.265-25.928c-3.212-1.852-7.039-3.748-10.279-5.744-4.572-2.817-4.947-7.146-4.225-12.117a.18.18 0 0 0-.069-.178l-18.84-14.912q-.104-.08-.208 0l-19.089 15.085a.22.22 0 0 0-.085.194q.172 2.33.139 3.376c-.11 3.622-2.115 6.688-5.331 8.348q-6.927 3.576-8.658 4.574-10.26 5.92-18.928 15.248c-8.48 9.122-14.094 20.588-16.184 32.996-2.52 14.962-.896 30.737 6.432 44.21"/><path fill="#000" d="M66.194 158.509c6.92 12.72 18.125 23.639 30.945 30.299q3.54 1.838 6.512 3.65 2.022 1.233 2.895 2.231c2.693 3.081 2.467 7.842 1.753 11.674a.18.18 0 0 0 .07.186l19.538 15.476a.15.15 0 0 0 .191 0l19.034-15.076a.18.18 0 0 0 .068-.187c-.725-3.658-.708-8.395 1.929-11.31 1.022-1.13 2.732-2.139 4.116-2.944a803 803 0 0 1 7.031-3.984c11.741-6.61 21.551-16.04 28.304-27.728 3.8-6.572 5.837-13.963 6.755-21.462 1.929-15.756.723-32.042-7.551-45.977q-9.74-16.403-26.265-25.928c-3.212-1.852-7.039-3.748-10.279-5.744-4.572-2.817-4.947-7.146-4.225-12.117a.18.18 0 0 0-.069-.178l-18.84-14.912q-.104-.08-.208 0l-19.089 15.085a.22.22 0 0 0-.085.194q.172 2.33.139 3.376c-.11 3.622-2.115 6.688-5.331 8.348q-6.927 3.576-8.658 4.574-10.26 5.92-18.928 15.248c-8.48 9.122-14.094 20.588-16.184 32.996-2.52 14.962-.896 30.737 6.432 44.21"/><path fill="#000" d="M17.804 171.125c17.477 44.182 59.459 73.967 107.217 75.13q.108.002.108-.107l.052-18.984a.2.2 0 0 0-.019-.082.2.2 0 0 0-.052-.066Q83.748 194.25 42.39 161.48c-.86-.679-1.14-1.502-1.144-2.656q-.09-30.598.002-61.2c.005-1.453.367-2.069 1.441-2.92a91765 91765 0 0 1 82.39-65.189.2.2 0 0 0 .081-.167l-.022-19.488q0-.13-.133-.128-30.752.883-57.056 16.327C38.421 43.397 17.253 73.61 11.475 107.455c-3.65 21.376-1.658 43.481 6.33 63.67M131.101 29.63c27.443 21.81 54.964 43.527 82.466 65.265.95.751 1.183 1.528 1.183 2.798v61.092c0 1.419-.322 2.048-1.374 2.881l-82.247 65.161a.24.24 0 0 0-.098.2l-.006 19.056q0 .179.176.174a66 66 0 0 0 2.163-.076q28.135-1.354 52.543-15.059c44.624-25.054 68.053-75.9 58.178-126.06-10.661-54.14-57.755-93.887-112.936-95.312q-.115-.003-.118.112l-.021 19.582q0 .115.091.186"/><path fill="#EDC29E" d="M136.317 170.244a.1.1 0 0 0-.06.035.1.1 0 0 0-.024.067q.006 5.688-.046 11.356c-.013 1.293-1.111 2.99-2.363 3.55q-.662.294-2.051.297-3.267.008-6.533.002-.766 0-2.025-.727c-1.556-.898-1.833-2.077-1.829-3.912q.015-5.26-.004-10.524 0-.12-.118-.137c-9.068-1.337-17.7-5.29-22.224-13.703q-2.42-4.497-3.014-8.925c-.336-2.506 1.165-4.073 3.574-4.064q3.77.015 7.534.004c1.74-.004 3.144.837 3.608 2.567q.752 2.793 1.109 3.723c1.719 4.445 5.325 7.101 9.882 8.155q5.1 1.183 10.071.634c7.113-.784 13.243-5.579 13.035-13.23-.148-5.54-3.071-8.29-8.07-9.993-4.729-1.61-9.006-2.278-14.129-3.057-11.42-1.734-23.09-5.874-24.913-19.165-.458-3.338-.475-6.675.326-9.895 2.643-10.62 12.418-16.71 22.736-18.032q.11-.015.109-.126.006-5.444.002-10.85c-.002-1.267 1.271-3.05 2.415-3.543q.74-.317 2.478-.315 2.413.005 4.824.002 1.56 0 2.337.267c1.606.553 2.767 1.836 2.775 3.64q.027 5.639.046 11.279 0 .112.11.123c10.134.987 18.425 7.923 21.025 17.744.909 3.435.113 5.646-3.728 5.633q-3.168-.01-6.332-.009c-2.198.002-3.287-.748-4.047-2.795-1.143-3.083-2.875-5.787-5.696-7.44-3.96-2.322-9.502-2.496-14.035-1.86-7.263 1.022-11.206 5.772-10.181 13.135.95 6.839 8.842 8.701 14.41 9.554 11.876 1.82 28.251 3.07 32.005 17.561q.774 2.997.898 6.349c.532 14.521-10.266 24.455-23.887 26.625"/></svg>
